X: 10932
Q: "With spirit."
M: 2/4
L: 1/8
K: Bb
e2c2 | {e}d3B | {d}c3d | BAGF |\
e3c | df {f}=e(f/d/) | {d}c3=E | F2zf |\
de B>_A | G2ze | efc>B | BAGF |\
f3e | {e}d3c | B2{d}c2 | {B}A2 HzF |
g2f>e | {e}d2 e(d/c/) | (BA)GF | B2z2 :|


